proprietary/assets/icons/medisch/reageerbuis.svg

<svg height="64" viewBox="0 0 64 64" width="64" xmlns="http://www.w3.org/2000/svg"><path d="m0 0h64v64h-64z" fill="none"/><path d="m44.8431 3.0025h-25.6862c-1.3724.0017-1.6962 2.4399-.0207 2.9042.9426.2611 2.0682.5492 2.8638.7494v.3439 44c0 5.5228 4.4772 10 10 10s10-4.4772 10-10v-44-.3439c.7956-.2001 1.9212-.4882 2.8638-.7494 1.6754-.4643 1.3517-2.9025-.0207-2.9042zm-6.8431 19.9975h-10v28s-.0413 2.1266 2.0831 3.5046c1.3794.8948 3.6481 1.4451 5.5021 1.1207.115.1123.0124.2927-.1664.432-.9557.6567-2.1117 1.0427-3.3588 1.0427h-.12c-3.2806 0-5.94-2.6594-5.94-5.94v-44.16h12z"/><circle cx="30" cy="18" r="2"/><circle cx="34" cy="12" r="2"/></svg>

<?xml version="1.0" encoding="utf-8"?>
<!-- Generator: Adobe Illustrator 18.1.0, SVG Export Plug-In . SVG Version: 6.00 Build 0)  -->
<svg version="1.2" baseProfile="tiny" xmlns="http://www.w3.org/2000/svg" xmlns:xlink="http://www.w3.org/1999/xlink" x="0px"
	 y="0px" width="64px" height="64px" viewBox="0 0 64 64" xml:space="preserve">
<g id="Box">
	<rect fill="none" width="64" height="64"/>
</g>
<g id="Icon">
	<g>
		<path d="M44.8431,3.0025H19.1569c-1.3724,0.0017-1.6962,2.4399-0.0207,2.9042C20.0788,6.1678,21.2044,6.4559,22,6.6561V7v44
			c0,5.5228,4.4772,10,10,10s10-4.4772,10-10V7V6.6561c0.7956-0.2001,1.9212-0.4882,2.8638-0.7494
			C46.5392,5.4424,46.2155,3.0042,44.8431,3.0025z M38,23H28v28c0,0-0.0413,2.1266,2.0831,3.5046
			c1.3794,0.8948,3.6481,1.4451,5.5021,1.1207c0.115,0.1123,0.0124,0.2927-0.1664,0.432C34.4631,56.714,33.3071,57.1,32.06,57.1
			h-0.12c-3.2806,0-5.94-2.6594-5.94-5.94V7h12V23z"/>
		<circle cx="30" cy="18" r="2"/>
		<circle cx="34" cy="12" r="2"/>
	</g>
</g>
</svg>
